svgs/icons/sm/accessibility.svg

<svg xmlns="http://www.w3.org/2000/svg" viewBox="0 0 16 16"><defs><style>.a{fill:#34363d}</style></defs><title>accessibility-16</title><path class="a" d="M8 0a8 8 0 1 0 8 8 8 8 0 0 0-8-8zm0 15a7 7 0 1 1 7-7 7 7 0 0 1-7 7z"/><path class="a" d="M8 2a6 6 0 1 0 6 6 6 6 0 0 0-6-6zm.05 1a1.15 1.15 0 1 1-1.12 1.15A1.13 1.13 0 0 1 8.05 3zm4.14 3l-3 1v2.17l1 3.34a.33.33 0 0 1-.57.32L8 9.25l-1.7 3.59a.34.34 0 0 1-.47.08.31.31 0 0 1-.08-.45l1.06-3.32V6.93l-3-1a.32.32 0 0 1-.18-.28.35.35 0 0 1 .18-.3.54.54 0 0 1 .35 0L8 6l3.82-.64h.15a.33.33 0 0 1 .35.2.33.33 0 0 1-.13.44z"/></svg>

<svg xmlns="http://www.w3.org/2000/svg" viewBox="0 0 16 16" ><defs><style>.a{fill:#34363d;}</style></defs><title>accessibility-16</title><path class="a" d="M8,0a8,8,0,1,0,8,8A8,8,0,0,0,8,0ZM8,15a7,7,0,1,1,7-7A7,7,0,0,1,8,15Z"/><path class="a" d="M8,2a6,6,0,1,0,6,6A6,6,0,0,0,8,2ZM8.05,3A1.15,1.15,0,1,1,6.93,4.15,1.13,1.13,0,0,1,8.05,3Zm4.14,3-3,1V9.17l1,3.34a0.33,0.33,0,0,1-.57.32L8,9.25l-1.7,3.59a0.34,0.34,0,0,1-.47.08,0.31,0.31,0,0,1-.08-0.45L6.81,9.15l0-2.22-3-1a0.32,0.32,0,0,1-.18-0.28,0.35,0.35,0,0,1,.18-0.3,0.54,0.54,0,0,1,.35,0L8,6l3.82-.64,0.15,0a0.33,0.33,0,0,1,.35.2A0.33,0.33,0,0,1,12.19,6Z"/></svg>
